source/img/third-blue.svg

<svg width="48" height="48" viewBox="0 0 48 48" fill="none" xmlns="http://www.w3.org/2000/svg">
<circle cx="24" cy="24" r="24" fill="#0061D9"/>
<path d="M21.9053 24.9424H23.7852C25.8584 24.9424 27.1367 25.9307 27.126 27.7031C27.1152 29.207 25.8477 30.2812 23.957 30.2812C22.0127 30.2812 20.6914 29.3037 20.5732 27.7891H18.2637C18.4141 30.4531 20.6377 32.29 23.957 32.29C27.1904 32.29 29.5752 30.4316 29.5752 27.7031C29.5752 25.5332 28.0498 24.1475 25.7725 23.9434V23.8896C27.6738 23.4922 29.0381 22.1924 29.0381 20.248C29.0381 17.9385 27.0938 16.209 23.9355 16.209C20.9062 16.209 18.79 17.9385 18.5967 20.6455H20.8525C20.9707 19.0986 22.2168 18.1855 23.9355 18.1855C25.7617 18.1855 26.6963 19.1309 26.6963 20.5811C26.6963 22.0312 25.4932 23.0732 23.7207 23.0732H21.9053V24.9424Z" fill="white"/>
</svg>

<svg width="48" height="48" fill="none" xmlns="http://www.w3.org/2000/svg"><circle cx="24" cy="24" r="24" fill="#0061D9"/><path d="M21.905 24.942h1.88c2.073 0 3.352.989 3.341 2.761-.01 1.504-1.278 2.578-3.169 2.578-1.944 0-3.266-.977-3.384-2.492h-2.31c.151 2.664 2.375 4.501 5.694 4.501 3.233 0 5.618-1.858 5.618-4.587 0-2.17-1.525-3.555-3.802-3.76v-.053c1.9-.398 3.265-1.698 3.265-3.642 0-2.31-1.944-4.039-5.102-4.039-3.03 0-5.146 1.73-5.34 4.436h2.256c.119-1.546 1.365-2.46 3.084-2.46 1.826 0 2.76.946 2.76 2.396s-1.203 2.492-2.975 2.492h-1.816v1.87z" fill="#fff"/></svg>
